src/icons/files/babel.svg

<svg width="24" height="24" viewBox="0 0 24 24" fill="none" xmlns="http://www.w3.org/2000/svg">
<path d="M18.23 11.21C18.2 11.05 17.76 10.5 16.91 9.56C16.89 9.37 17.2 9.11 17.81 8.76L19.55 7.21C19.94 6.71 20.17 5.93 20.24 4.83L20.22 4.57C20.15 3.79 19.59 3.17 18.53 2.68C17.9 2.26 16.77 2.03 15.15 2C13.8 2.11 12.04 2.59 9.87001 3.43C9.27001 3.86 8.59001 4.29 7.83001 4.71L7.84001 4.85L8.05001 4.77C8.13001 4.76 8.18001 4.8 8.19001 4.88L8.32001 4.81L8.39001 4.8L8.40001 4.86C8.40001 4.93 7.93001 5.3 6.64001 6.21L6.58001 6.33C6.27001 6.35 5.97001 6.58 5.67001 7L5.75001 7.12L6.00001 7.03L6.18001 7.27C6.50001 6.94 6.84001 6.65 7.21001 6.4C7.40001 6.45 7.50001 6.51 7.65001 6.56C8.67001 5.81 9.68001 5.26 10.69 4.92L10.7 5.06C10.5 5.33 10.38 5.48 10.32 5.48L10.42 5.71C10.43 5.9 7.87001 12.71 3.76001 20.15L3.84001 20.34C4.19001 20.26 4.42001 20.17 4.59001 20.08L4.60001 20.21L5.00001 20.18L4.33001 21.94L4.47001 22C5.04001 21.36 5.47001 20.71 5.77001 20.12C7.44001 19.63 8.71001 19.15 9.59001 18.68C10.47 18.6 11.15 18.37 11.61 17.98L12.53 17.51C13.8 16.53 14.75 15.84 15.4 15.43C16.73 14.45 17.6 13.5 18 12.58L18.23 11.21ZM14.77 13.52L13 14.91C11.71 15.76 11 16.21 10.91 16.21C8.84001 17.34 7.55001 17.93 7.05001 17.97L7.00001 17.98C7.04001 17.75 7.96001 15.86 9.75001 12.31C10.53 12.25 11.77 11.88 13.46 11.21L13.87 11.18C14.72 11.1 15.36 11.27 15.78 11.67L15.81 11.93C15.5 12.83 15.14 13.37 14.77 13.52ZM15.86 7.74C15.68 7.96 15.18 8.33 14.36 8.85C14.09 8.88 13.09 9.27 11.35 10.03L11.07 9.98L11.06 9.86C11.04 9.61 11.15 9.29 11.4 8.91C11.53 8.21 11.68 7.79 11.84 7.71L13.29 4.43C13.27 4.21 13.58 4.08 14.22 3.97L14.43 3.95L14.44 4.13L15.6 3.97C16.75 3.87 17.35 4.11 17.4 4.67L17.53 4.65L17.5 4.33L17.65 4.31C18 4.5 18.17 4.71 18.19 4.99C18.21 5.17 18.11 5.4 17.9 5.67C17.81 5.68 17.76 5.61 17.75 5.49L17.61 5.5L17.58 5.9C17 6.77 16.57 7.21 16.31 7.24L15.86 7.74Z" fill="#FDD835"/>
</svg>

<svg viewBox="0 0 24 24" xmlns="http://www.w3.org/2000/svg"><path d="M18.23 11.21c-.03-.16-.47-.71-1.32-1.65-.02-.19.29-.45.9-.8l1.74-1.55c.39-.5.62-1.28.69-2.38l-.02-.26c-.07-.78-.63-1.4-1.69-1.89-.63-.42-1.76-.65-3.38-.68-1.35.11-3.11.59-5.28 1.43-.6.43-1.28.86-2.04 1.28l.01.14.21-.08c.08-.01.13.03.14.11l.13-.07.07-.01.01.06c0 .07-.47.44-1.76 1.35l-.06.12c-.31.02-.61.25-.91.67l.08.12.25-.09.18.24c.32-.33.66-.62 1.03-.87.19.05.29.11.44.16 1.02-.75 2.03-1.3 3.04-1.64l.01.14c-.2.27-.32.42-.38.42l.1.23c.01.19-2.55 7-6.66 14.44l.08.19c.35-.08.58-.17.75-.26l.01.13.4-.03-.67 1.76.14.06c.57-.64 1-1.29 1.3-1.88 1.67-.49 2.94-.97 3.82-1.44.88-.08 1.56-.31 2.02-.7l.92-.47c1.27-.98 2.22-1.67 2.87-2.08 1.33-.98 2.2-1.93 2.6-2.85l.23-1.37m-3.46 2.31L13 14.91c-1.29.85-2 1.3-2.09 1.3-2.07 1.13-3.36 1.72-3.86 1.76l-.05.01c.04-.23.96-2.12 2.75-5.67.78-.06 2.02-.43 3.71-1.1l.41-.03c.85-.08 1.49.09 1.91.49l.03.26c-.31.9-.67 1.44-1.04 1.59m1.09-5.78c-.18.22-.68.59-1.5 1.11-.27.03-1.27.42-3.01 1.18l-.28-.05-.01-.12c-.02-.25.09-.57.34-.95.13-.7.28-1.12.44-1.2l1.45-3.28c-.02-.22.29-.35.93-.46l.21-.02.01.18 1.16-.16c1.15-.1 1.75.14 1.8.7l.13-.02-.03-.32.15-.02c.35.19.52.4.54.68.02.18-.08.41-.29.68-.09.01-.14-.06-.15-.18l-.14.01-.03.4c-.58.87-1.01 1.31-1.27 1.34z" style="fill:#fdd835"/></svg>
